img/check__icon.svg

<svg width="16" height="15" viewBox="0 0 16 15" fill="none" xmlns="http://www.w3.org/2000/svg">
<path opacity="0.4" d="M14.997 1.07047C14.3146 0.70605 13.5534 1.40887 13.1072 1.82535C12.0836 2.8145 11.2174 3.95983 10.2462 5.00104C9.17006 6.14637 8.17265 7.2917 7.07025 8.41104C6.4403 9.03577 5.75787 9.71255 5.3379 10.4935C4.39299 9.58236 3.57931 8.59321 2.5294 7.78632C1.76822 7.21365 0.508336 6.79717 0.534583 8.17677C0.587079 9.9729 2.18819 11.8991 3.36933 13.1225C3.86804 13.6431 4.52423 14.1898 5.28541 14.2158C6.20408 14.2678 7.14899 13.1746 7.70019 12.5759C8.6714 11.5347 9.45883 10.3633 10.3512 9.29607C11.5061 7.89044 12.6872 6.51079 13.8159 5.07913C14.5246 4.1941 16.7556 2.00752 14.997 1.07047Z" fill="#4D4D4D"/>
</svg>

<svg width="16" height="15" fill="none" xmlns="http://www.w3.org/2000/svg"><path opacity=".4" d="M14.997 1.07c-.682-.364-1.444.339-1.89.755-1.023.99-1.89 2.135-2.86 3.176-1.077 1.145-2.074 2.29-3.177 3.41-.63.625-1.312 1.302-1.732 2.082-.945-.91-1.759-1.9-2.809-2.707-.76-.572-2.02-.989-1.994.39.052 1.797 1.653 3.723 2.834 4.947.499.52 1.155 1.067 1.916 1.093.92.052 1.864-1.041 2.415-1.64.971-1.041 1.759-2.213 2.651-3.28 1.155-1.406 2.336-2.785 3.465-4.217.709-.885 2.94-3.071 1.181-4.009z" fill="#4D4D4D"/></svg>
